src/assets/icons/icone-coordinateur.svg

<svg width="35" height="40" viewBox="0 0 35 40" fill="none" xmlns="http://www.w3.org/2000/svg">
<path d="M17.3324 0L0 10.0063V30.0207L17.2919 40L34.6647 30.0207V10.0063L17.3324 0Z" fill="#000090"/>
<path d="M22.2899 17.1532H28.8574V13.3602L17.334 6.70605L5.80859 13.3602V26.6666L17.334 33.3227L28.8574 26.6666V22.8755H22.2899V17.1532Z" fill="white"/>
<path d="M22.2869 22.8734V17.1512L17.331 14.29L12.375 17.1512V22.8734L17.331 25.7365L22.2869 22.8734Z" fill="#E0000F"/>
</svg>

<svg width="35" height="40" fill="none" xmlns="http://www.w3.org/2000/svg"><path d="M17.332 0 0 10.006v20.015L17.292 40l17.373-9.98V10.007L17.332 0z" fill="#000090"/><path d="M22.29 17.153h6.567V13.36L17.334 6.706 5.809 13.36v13.307l11.525 6.656 11.523-6.656v-3.792H22.29v-5.722z" fill="#fff"/><path d="M22.287 22.873v-5.722L17.33 14.29l-4.956 2.861v5.722l4.956 2.863 4.956-2.863z" fill="#E0000F"/></svg>
